report_00007_2020-12-11T15:55:29.892Z/server-response-time/comparison/sorted/11_vs_12.svg

<svg width="640" height="500" xmlns="http://www.w3.org/2000/svg" xmlns:xlink="http://www.w3.org/1999/xlink"><path fill="#fff" d="M0 0h640v500H0z"/><defs><path id="d" stroke-width=".222" stroke="currentColor" d="M-1-1h2v2h-2z"/><path id="b" stroke-width=".222" stroke="currentColor" d="M0-1.33l-1.33 2h2.66z"/><path id="f" stroke-width=".222" stroke="currentColor" d="M0 1.33L1.265.411.782-1.067l-1.564-.009-.483 1.487z"/><use xlink:href="#b" id="c" stroke="currentColor" transform="rotate(180)"/><use xlink:href="#d" id="e" stroke="currentColor" transform="rotate(45)"/><circle id="a" stroke-width=".222" stroke="currentColor" cx="0" cy="0" r="1"/></defs><g fill="none" color="#000" stroke="currentColor"><path stroke="#000" d="M53.9 378.8h9m552.1 0h-9"/><text transform="translate(45.6 382.7)" stroke="none" fill="#000" font-family="Arial" font-size="12" text-anchor="end"><tspan>1.4</tspan></text></g><g fill="none" color="#000" stroke="currentColor"><path stroke="#000" d="M53.9 319h9m552.1 0h-9"/><text transform="translate(45.6 322.9)" stroke="none" fill="#000" font-family="Arial" font-size="12" text-anchor="end"><tspan>1.6</tspan></text></g><g fill="none" color="#000" stroke="currentColor"><path stroke="#000" d="M53.9 259.2h9m552.1 0h-9"/><text transform="translate(45.6 263.1)" stroke="none" fill="#000" font-family="Arial" font-size="12" text-anchor="end"><tspan>1.8</tspan></text></g><g fill="none" color="#000" stroke="currentColor"><path stroke="#000" d="M53.9 199.4h9m552.1 0h-9"/><text transform="translate(45.6 203.3)" stroke="none" fill="#000" font-family="Arial" font-size="12" text-anchor="end"><tspan>2</tspan></text></g><g fill="none" color="#000" stroke="currentColor"><path stroke="#000" d="M53.9 139.6h9m552.1 0h-9"/><text transform="translate(45.6 143.5)" stroke="none" fill="#000" font-family="Arial" font-size="12" text-anchor="end"><tspan>2.2</tspan></text></g><g fill="none" color="#000" stroke="currentColor"><path stroke="#000" d="M53.9 79.8h9m552.1 0h-9"/><text transform="translate(45.6 83.7)" stroke="none" fill="#000" font-family="Arial" font-size="12" text-anchor="end"><tspan>2.4</tspan></text></g><g fill="none" color="#000" stroke="currentColor"><path stroke="#000" d="M53.9 20h9M615 20h-9"/><text transform="translate(45.6 23.9)" stroke="none" fill="#000" font-family="Arial" font-size="12" text-anchor="end"><tspan>2.6</tspan></text></g><g fill="none" color="#000" stroke="currentColor"><path stroke="#000" d="M53.9 428v-9m0-400.9v9"/><text transform="translate(53.9 449.9)" stroke="none" fill="#000" font-family="Arial" font-size="12" text-anchor="middle"><tspan>0</tspan></text></g><g fill="none" color="#000" stroke="currentColor"><path stroke="#000" d="M110.6 428v-9m0-400.9v9"/><text transform="translate(110.6 449.9)" stroke="none" fill="#000" font-family="Arial" font-size="12" text-anchor="middle"><tspan>10</tspan></text></g><g fill="none" color="#000" stroke="currentColor"><path stroke="#000" d="M167.3 428v-9m0-400.9v9"/><text transform="translate(167.3 449.9)" stroke="none" fill="#000" font-family="Arial" font-size="12" text-anchor="middle"><tspan>20</tspan></text></g><g fill="none" color="#000" stroke="currentColor"><path stroke="#000" d="M223.9 428v-9m0-400.9v9"/><text transform="translate(223.9 449.9)" stroke="none" fill="#000" font-family="Arial" font-size="12" text-anchor="middle"><tspan>30</tspan></text></g><g fill="none" color="#000" stroke="currentColor"><path stroke="#000" d="M280.6 428v-9m0-400.9v9"/><text transform="translate(280.6 449.9)" stroke="none" fill="#000" font-family="Arial" font-size="12" text-anchor="middle"><tspan>40</tspan></text></g><g fill="none" color="#000" stroke="currentColor"><path stroke="#000" d="M337.3 428v-9m0-400.9v9"/><text transform="translate(337.3 449.9)" stroke="none" fill="#000" font-family="Arial" font-size="12" text-anchor="middle"><tspan>50</tspan></text></g><g fill="none" color="#000" stroke="currentColor"><path stroke="#000" d="M394 428v-9m0-400.9v9"/><text transform="translate(394 449.9)" stroke="none" fill="#000" font-family="Arial" font-size="12" text-anchor="middle"><tspan>60</tspan></text></g><g fill="none" color="#000" stroke="currentColor"><path stroke="#000" d="M450.6 428v-9m0-400.9v9"/><text transform="translate(450.6 449.9)" stroke="none" fill="#000" font-family="Arial" font-size="12" text-anchor="middle"><tspan>70</tspan></text></g><g fill="none" color="#000" stroke="currentColor"><path stroke="#000" d="M507.3 428v-9m0-400.9v9"/><text transform="translate(507.3 449.9)" stroke="none" fill="#000" font-family="Arial" font-size="12" text-anchor="middle"><tspan>80</tspan></text></g><g fill="none" color="#000" stroke="currentColor"><path stroke="#000" d="M564 428v-9m0-400.9v9"/><text transform="translate(564 449.9)" stroke="none" fill="#000" font-family="Arial" font-size="12" text-anchor="middle"><tspan>90</tspan></text></g><path stroke="#000" d="M53.9 18.1V428H615V18.1H53.9z" fill="none" color="#000"/><text transform="translate(508.4 467.9)" stroke="none" fill="#000" font-family="Arial" font-size="12" text-anchor="end" color="#000"><tspan>pages+cached+noexternal+nofonts+nosvg+noimg</tspan></text><path stroke="#9400D3" d="M516.7 464h42.2m-505-47.2l5.7-10.1 5.6-4.2 5.7-2.1 5.7-1.2 5.6-.9 5.7-2.7 5.7-1.5 5.6-.3 5.7-.3 5.7-.3 5.6-3.6 5.7-2.1 5.7-1.8 5.6-.3 5.7-1.5 5.7-.6 5.7-1.5 5.6-.6 5.7-4.4 5.7-4.5 5.6-2.7 5.7-3.3 5.7-5.1 5.6-.3 5.7-1.8 5.7-2.4 5.6-4.5 5.7-3 5.7-8 5.6-.9 5.7-2.7 5.7-1.2 5.6-4.2h5.7l5.7-3.3 5.6-1.8 5.7-11.3 5.7-.9 5.6-.6 5.7-1.8 5.7-.9 5.6-.9 5.7-2.7 5.7-2.7 5.6-.6 5.7-1.2 5.7-5.1 5.6-4.8 5.7-1.8 5.7-.6 5.7-.9 5.6-.3 5.7-1.8h5.7l5.6-1.8h5.7l5.7-2.6 5.6-1.5 5.7-1.2 5.7-.6h5.6l5.7-.6 5.7-.3 5.6-1.5 5.7-5.4 5.7-5.7h5.6l5.7-2.4 5.7-.6 5.6-2.7 5.7-1.2 5.7-3.3 5.6-4.1 5.7-3.9 5.7-2.7h5.6l5.7-9 5.7-.6 5.6-2.4 5.7-1.5 5.7-.3 5.6-5.7 5.7-4.4 5.7-3.3 5.7-1.5 5.6-4.5 5.7-1.5 5.7-1.5 5.6-2.4 5.7-8.7 5.7-4.8 5.6-38.5 5.7-5.7 5.7-2.4 5.6-.6 5.7-.6 5.7-8.7 5.6-29.9L615 26" fill="none" color="#000"/><text transform="translate(508.4 485.9)" stroke="none" fill="#000" font-family="Arial" font-size="12" text-anchor="end" color="#000"><tspan>pages+cached+noexternal+nofonts+nosvg+noimg+nocss</tspan></text><path stroke="#009E73" d="M516.7 482h42.2m-505-61.9l5.7-2.4 5.6-2.1 5.7-.9 5.7-1.8 5.6-2.7 5.7-.3 5.7-8.6 5.6-5.4 5.7-.3 5.7-3.3 5.6-.9 5.7-.3 5.7-4.5 5.6-.3 5.7-1.2 5.7-1.2 5.7-.9 5.6-.6h5.7l5.7-3.3 5.6-2.3 5.7-.9 5.7-2.4 5.6-3.9 5.7-1.5 5.7-.6 5.6-5.7 5.7-1.8 5.7-.6 5.6-.3 5.7-1.2 5.7-1.5 5.6-1.8 5.7-1.8 5.7-1.2 5.6-15.5 5.7-2.1 5.7-1.2 5.6-17.6 5.7-8.1h5.7l5.6-4.5 5.7-1.8h5.7l5.6-.9 5.7-4.8 5.7-1.8 5.6-2.1 5.7-.3 5.7-1.2 5.7-2.1 5.6-1.5 5.7-.3 5.7-.8h5.6l5.7-1.5 5.7-5.7 5.6-1.2 5.7-3 5.7-.9 5.6-4.5 5.7-1.2 5.7-1.8 5.6-1.5h5.7l5.7-2.4 5.6-1.5 5.7-5.6 5.7-4.2 5.6-.3 5.7-3 5.7-8.4 5.6-.3 5.7-3.6 5.7-3 5.6-1.5 5.7-.3 5.7-7.7 5.6-1.8 5.7-.3 5.7-1.5 5.6-2.7 5.7-3.9 5.7-3.3 5.7-3 5.6-3.9 5.7-16.7 5.7-8.1 5.6-1.8 5.7-1.2 5.7-2.4 5.6-9 5.7-21.2 5.7-1.2 5.6-1.5 5.7-7.5 5.7-2.3 5.6-65.2 5.7-30.8" fill="none" color="#000"/><g fill="none" color="#000" stroke="currentColor"><path stroke="#000" d="M53.9 18.1V428H615V18.1H53.9z"/></g></svg>

<?xml version="1.0" encoding="utf-8"  standalone="no"?>
<svg 
 width="640" height="500"
 viewBox="0 0 640 500"
 xmlns="http://www.w3.org/2000/svg"
 xmlns:xlink="http://www.w3.org/1999/xlink"
>

<title>Gnuplot</title>
<desc>Produced by GNUPLOT 5.4 patchlevel 0 </desc>

<g id="gnuplot_canvas">

<rect x="0" y="0" width="640" height="500" fill="#ffffff"/>
<defs>

	<circle id='gpDot' r='0.5' stroke-width='0.5' stroke='currentColor'/>
	<path id='gpPt0' stroke-width='0.222' stroke='currentColor' d='M-1,0 h2 M0,-1 v2'/>
	<path id='gpPt1' stroke-width='0.222' stroke='currentColor' d='M-1,-1 L1,1 M1,-1 L-1,1'/>
	<path id='gpPt2' stroke-width='0.222' stroke='currentColor' d='M-1,0 L1,0 M0,-1 L0,1 M-1,-1 L1,1 M-1,1 L1,-1'/>
	<rect id='gpPt3' stroke-width='0.222' stroke='currentColor' x='-1' y='-1' width='2' height='2'/>
	<rect id='gpPt4' stroke-width='0.222' stroke='currentColor' fill='currentColor' x='-1' y='-1' width='2' height='2'/>
	<circle id='gpPt5' stroke-width='0.222' stroke='currentColor' cx='0' cy='0' r='1'/>
	<use xlink:href='#gpPt5' id='gpPt6' fill='currentColor' stroke='none'/>
	<path id='gpPt7' stroke-width='0.222' stroke='currentColor' d='M0,-1.33 L-1.33,0.67 L1.33,0.67 z'/>
	<use xlink:href='#gpPt7' id='gpPt8' fill='currentColor' stroke='none'/>
	<use xlink:href='#gpPt7' id='gpPt9' stroke='currentColor' transform='rotate(180)'/>
	<use xlink:href='#gpPt9' id='gpPt10' fill='currentColor' stroke='none'/>
	<use xlink:href='#gpPt3' id='gpPt11' stroke='currentColor' transform='rotate(45)'/>
	<use xlink:href='#gpPt11' id='gpPt12' fill='currentColor' stroke='none'/>
	<path id='gpPt13' stroke-width='0.222' stroke='currentColor' d='M0,1.330 L1.265,0.411 L0.782,-1.067 L-0.782,-1.076 L-1.265,0.411 z'/>
	<use xlink:href='#gpPt13' id='gpPt14' fill='currentColor' stroke='none'/>
	<filter id='textbox' filterUnits='objectBoundingBox' x='0' y='0' height='1' width='1'>
	  <feFlood flood-color='#FFFFFF' flood-opacity='1' result='bgnd'/>
	  <feComposite in='SourceGraphic' in2='bgnd' operator='atop'/>
	</filter>
	<filter id='greybox' filterUnits='objectBoundingBox' x='0' y='0' height='1' width='1'>
	  <feFlood flood-color='lightgrey' flood-opacity='1' result='grey'/>
	  <feComposite in='SourceGraphic' in2='grey' operator='atop'/>
	</filter>
</defs>
<g fill="none" color="#FFFFFF" stroke="black" stroke-width="1.00" stroke-linecap="butt" stroke-linejoin="miter">
</g>
<g fill="none" color="black" stroke="currentColor" stroke-width="1.00" stroke-linecap="butt" stroke-linejoin="miter">
	<path stroke='black'  d='M53.9,378.8 L62.9,378.8 M615.0,378.8 L606.0,378.8  '/>	<g transform="translate(45.6,382.7)" stroke="none" fill="black" font-family="Arial" font-size="12.00"  text-anchor="end">
		<text><tspan font-family="Arial" > 1.4</tspan></text>
	</g>
</g>
<g fill="none" color="black" stroke="currentColor" stroke-width="1.00" stroke-linecap="butt" stroke-linejoin="miter">
	<path stroke='black'  d='M53.9,319.0 L62.9,319.0 M615.0,319.0 L606.0,319.0  '/>	<g transform="translate(45.6,322.9)" stroke="none" fill="black" font-family="Arial" font-size="12.00"  text-anchor="end">
		<text><tspan font-family="Arial" > 1.6</tspan></text>
	</g>
</g>
<g fill="none" color="black" stroke="currentColor" stroke-width="1.00" stroke-linecap="butt" stroke-linejoin="miter">
	<path stroke='black'  d='M53.9,259.2 L62.9,259.2 M615.0,259.2 L606.0,259.2  '/>	<g transform="translate(45.6,263.1)" stroke="none" fill="black" font-family="Arial" font-size="12.00"  text-anchor="end">
		<text><tspan font-family="Arial" > 1.8</tspan></text>
	</g>
</g>
<g fill="none" color="black" stroke="currentColor" stroke-width="1.00" stroke-linecap="butt" stroke-linejoin="miter">
	<path stroke='black'  d='M53.9,199.4 L62.9,199.4 M615.0,199.4 L606.0,199.4  '/>	<g transform="translate(45.6,203.3)" stroke="none" fill="black" font-family="Arial" font-size="12.00"  text-anchor="end">
		<text><tspan font-family="Arial" > 2</tspan></text>
	</g>
</g>
<g fill="none" color="black" stroke="currentColor" stroke-width="1.00" stroke-linecap="butt" stroke-linejoin="miter">
	<path stroke='black'  d='M53.9,139.6 L62.9,139.6 M615.0,139.6 L606.0,139.6  '/>	<g transform="translate(45.6,143.5)" stroke="none" fill="black" font-family="Arial" font-size="12.00"  text-anchor="end">
		<text><tspan font-family="Arial" > 2.2</tspan></text>
	</g>
</g>
<g fill="none" color="black" stroke="currentColor" stroke-width="1.00" stroke-linecap="butt" stroke-linejoin="miter">
	<path stroke='black'  d='M53.9,79.8 L62.9,79.8 M615.0,79.8 L606.0,79.8  '/>	<g transform="translate(45.6,83.7)" stroke="none" fill="black" font-family="Arial" font-size="12.00"  text-anchor="end">
		<text><tspan font-family="Arial" > 2.4</tspan></text>
	</g>
</g>
<g fill="none" color="black" stroke="currentColor" stroke-width="1.00" stroke-linecap="butt" stroke-linejoin="miter">
	<path stroke='black'  d='M53.9,20.0 L62.9,20.0 M615.0,20.0 L606.0,20.0  '/>	<g transform="translate(45.6,23.9)" stroke="none" fill="black" font-family="Arial" font-size="12.00"  text-anchor="end">
		<text><tspan font-family="Arial" > 2.6</tspan></text>
	</g>
</g>
<g fill="none" color="black" stroke="currentColor" stroke-width="1.00" stroke-linecap="butt" stroke-linejoin="miter">
	<path stroke='black'  d='M53.9,428.0 L53.9,419.0 M53.9,18.1 L53.9,27.1  '/>	<g transform="translate(53.9,449.9)" stroke="none" fill="black" font-family="Arial" font-size="12.00"  text-anchor="middle">
		<text><tspan font-family="Arial" > 0</tspan></text>
	</g>
</g>
<g fill="none" color="black" stroke="currentColor" stroke-width="1.00" stroke-linecap="butt" stroke-linejoin="miter">
	<path stroke='black'  d='M110.6,428.0 L110.6,419.0 M110.6,18.1 L110.6,27.1  '/>	<g transform="translate(110.6,449.9)" stroke="none" fill="black" font-family="Arial" font-size="12.00"  text-anchor="middle">
		<text><tspan font-family="Arial" > 10</tspan></text>
	</g>
</g>
<g fill="none" color="black" stroke="currentColor" stroke-width="1.00" stroke-linecap="butt" stroke-linejoin="miter">
	<path stroke='black'  d='M167.3,428.0 L167.3,419.0 M167.3,18.1 L167.3,27.1  '/>	<g transform="translate(167.3,449.9)" stroke="none" fill="black" font-family="Arial" font-size="12.00"  text-anchor="middle">
		<text><tspan font-family="Arial" > 20</tspan></text>
	</g>
</g>
<g fill="none" color="black" stroke="currentColor" stroke-width="1.00" stroke-linecap="butt" stroke-linejoin="miter">
	<path stroke='black'  d='M223.9,428.0 L223.9,419.0 M223.9,18.1 L223.9,27.1  '/>	<g transform="translate(223.9,449.9)" stroke="none" fill="black" font-family="Arial" font-size="12.00"  text-anchor="middle">
		<text><tspan font-family="Arial" > 30</tspan></text>
	</g>
</g>
<g fill="none" color="black" stroke="currentColor" stroke-width="1.00" stroke-linecap="butt" stroke-linejoin="miter">
	<path stroke='black'  d='M280.6,428.0 L280.6,419.0 M280.6,18.1 L280.6,27.1  '/>	<g transform="translate(280.6,449.9)" stroke="none" fill="black" font-family="Arial" font-size="12.00"  text-anchor="middle">
		<text><tspan font-family="Arial" > 40</tspan></text>
	</g>
</g>
<g fill="none" color="black" stroke="currentColor" stroke-width="1.00" stroke-linecap="butt" stroke-linejoin="miter">
	<path stroke='black'  d='M337.3,428.0 L337.3,419.0 M337.3,18.1 L337.3,27.1  '/>	<g transform="translate(337.3,449.9)" stroke="none" fill="black" font-family="Arial" font-size="12.00"  text-anchor="middle">
		<text><tspan font-family="Arial" > 50</tspan></text>
	</g>
</g>
<g fill="none" color="black" stroke="currentColor" stroke-width="1.00" stroke-linecap="butt" stroke-linejoin="miter">
	<path stroke='black'  d='M394.0,428.0 L394.0,419.0 M394.0,18.1 L394.0,27.1  '/>	<g transform="translate(394.0,449.9)" stroke="none" fill="black" font-family="Arial" font-size="12.00"  text-anchor="middle">
		<text><tspan font-family="Arial" > 60</tspan></text>
	</g>
</g>
<g fill="none" color="black" stroke="currentColor" stroke-width="1.00" stroke-linecap="butt" stroke-linejoin="miter">
	<path stroke='black'  d='M450.6,428.0 L450.6,419.0 M450.6,18.1 L450.6,27.1  '/>	<g transform="translate(450.6,449.9)" stroke="none" fill="black" font-family="Arial" font-size="12.00"  text-anchor="middle">
		<text><tspan font-family="Arial" > 70</tspan></text>
	</g>
</g>
<g fill="none" color="black" stroke="currentColor" stroke-width="1.00" stroke-linecap="butt" stroke-linejoin="miter">
	<path stroke='black'  d='M507.3,428.0 L507.3,419.0 M507.3,18.1 L507.3,27.1  '/>	<g transform="translate(507.3,449.9)" stroke="none" fill="black" font-family="Arial" font-size="12.00"  text-anchor="middle">
		<text><tspan font-family="Arial" > 80</tspan></text>
	</g>
</g>
<g fill="none" color="black" stroke="currentColor" stroke-width="1.00" stroke-linecap="butt" stroke-linejoin="miter">
	<path stroke='black'  d='M564.0,428.0 L564.0,419.0 M564.0,18.1 L564.0,27.1  '/>	<g transform="translate(564.0,449.9)" stroke="none" fill="black" font-family="Arial" font-size="12.00"  text-anchor="middle">
		<text><tspan font-family="Arial" > 90</tspan></text>
	</g>
</g>
<g fill="none" color="black" stroke="currentColor" stroke-width="1.00" stroke-linecap="butt" stroke-linejoin="miter">
</g>
<g fill="none" color="black" stroke="currentColor" stroke-width="1.00" stroke-linecap="butt" stroke-linejoin="miter">
	<path stroke='black'  d='M53.9,18.1 L53.9,428.0 L615.0,428.0 L615.0,18.1 L53.9,18.1 Z  '/></g>
<g fill="none" color="black" stroke="currentColor" stroke-width="1.00" stroke-linecap="butt" stroke-linejoin="miter">
</g>
	<g id="gnuplot_plot_1" ><title>pages+cached+noexternal+nofonts+nosvg+noimg</title>
<g fill="none" color="black" stroke="currentColor" stroke-width="1.00" stroke-linecap="butt" stroke-linejoin="miter">
	<g transform="translate(508.4,467.9)" stroke="none" fill="black" font-family="Arial" font-size="12.00"  text-anchor="end">
		<text><tspan font-family="Arial" >pages+cached+noexternal+nofonts+nosvg+noimg</tspan></text>
	</g>
</g>
<g fill="none" color="black" stroke="currentColor" stroke-width="1.00" stroke-linecap="butt" stroke-linejoin="miter">
	<path stroke='rgb(148,   0, 211)'  d='M516.7,464.0 L558.9,464.0 M53.9,416.8 L59.6,406.7 L65.2,402.5 L70.9,400.4 L76.6,399.2 L82.2,398.3
		L87.9,395.6 L93.6,394.1 L99.2,393.8 L104.9,393.5 L110.6,393.2 L116.2,389.6 L121.9,387.5 L127.6,385.7
		L133.2,385.4 L138.9,383.9 L144.6,383.3 L150.3,381.8 L155.9,381.2 L161.6,376.8 L167.3,372.3 L172.9,369.6
		L178.6,366.3 L184.3,361.2 L189.9,360.9 L195.6,359.1 L201.3,356.7 L206.9,352.2 L212.6,349.2 L218.3,341.2
		L223.9,340.3 L229.6,337.6 L235.3,336.4 L240.9,332.2 L246.6,332.2 L252.3,328.9 L257.9,327.1 L263.6,315.8
		L269.3,314.9 L274.9,314.3 L280.6,312.5 L286.3,311.6 L291.9,310.7 L297.6,308.0 L303.3,305.3 L308.9,304.7
		L314.6,303.5 L320.3,298.4 L325.9,293.6 L331.6,291.8 L337.3,291.2 L343.0,290.3 L348.6,290.0 L354.3,288.2
		L360.0,288.2 L365.6,286.4 L371.3,286.4 L377.0,283.8 L382.6,282.3 L388.3,281.1 L394.0,280.5 L399.6,280.5
		L405.3,279.9 L411.0,279.6 L416.6,278.1 L422.3,272.7 L428.0,267.0 L433.6,267.0 L439.3,264.6 L445.0,264.0
		L450.6,261.3 L456.3,260.1 L462.0,256.8 L467.6,252.7 L473.3,248.8 L479.0,246.1 L484.6,246.1 L490.3,237.1
		L496.0,236.5 L501.6,234.1 L507.3,232.6 L513.0,232.3 L518.6,226.6 L524.3,222.2 L530.0,218.9 L535.7,217.4
		L541.3,212.9 L547.0,211.4 L552.7,209.9 L558.3,207.5 L564.0,198.8 L569.7,194.0 L575.3,155.5 L581.0,149.8
		L586.7,147.4 L592.3,146.8 L598.0,146.2 L603.7,137.5 L609.3,107.6 L615.0,26.0  '/></g>
	</g>
	<g id="gnuplot_plot_2" ><title>pages+cached+noexternal+nofonts+nosvg+noimg+nocss</title>
<g fill="none" color="black" stroke="currentColor" stroke-width="1.00" stroke-linecap="butt" stroke-linejoin="miter">
	<g transform="translate(508.4,485.9)" stroke="none" fill="black" font-family="Arial" font-size="12.00"  text-anchor="end">
		<text><tspan font-family="Arial" >pages+cached+noexternal+nofonts+nosvg+noimg+nocss</tspan></text>
	</g>
</g>
<g fill="none" color="black" stroke="currentColor" stroke-width="1.00" stroke-linecap="butt" stroke-linejoin="miter">
	<path stroke='rgb(  0, 158, 115)'  d='M516.7,482.0 L558.9,482.0 M53.9,420.1 L59.6,417.7 L65.2,415.6 L70.9,414.7 L76.6,412.9 L82.2,410.2
		L87.9,409.9 L93.6,401.3 L99.2,395.9 L104.9,395.6 L110.6,392.3 L116.2,391.4 L121.9,391.1 L127.6,386.6
		L133.2,386.3 L138.9,385.1 L144.6,383.9 L150.3,383.0 L155.9,382.4 L161.6,382.4 L167.3,379.1 L172.9,376.8
		L178.6,375.9 L184.3,373.5 L189.9,369.6 L195.6,368.1 L201.3,367.5 L206.9,361.8 L212.6,360.0 L218.3,359.4
		L223.9,359.1 L229.6,357.9 L235.3,356.4 L240.9,354.6 L246.6,352.8 L252.3,351.6 L257.9,336.1 L263.6,334.0
		L269.3,332.8 L274.9,315.2 L280.6,307.1 L286.3,307.1 L291.9,302.6 L297.6,300.8 L303.3,300.8 L308.9,299.9
		L314.6,295.1 L320.3,293.3 L325.9,291.2 L331.6,290.9 L337.3,289.7 L343.0,287.6 L348.6,286.1 L354.3,285.8
		L360.0,285.0 L365.6,285.0 L371.3,283.5 L377.0,277.8 L382.6,276.6 L388.3,273.6 L394.0,272.7 L399.6,268.2
		L405.3,267.0 L411.0,265.2 L416.6,263.7 L422.3,263.7 L428.0,261.3 L433.6,259.8 L439.3,254.2 L445.0,250.0
		L450.6,249.7 L456.3,246.7 L462.0,238.3 L467.6,238.0 L473.3,234.4 L479.0,231.4 L484.6,229.9 L490.3,229.6
		L496.0,221.9 L501.6,220.1 L507.3,219.8 L513.0,218.3 L518.6,215.6 L524.3,211.7 L530.0,208.4 L535.7,205.4
		L541.3,201.5 L547.0,184.8 L552.7,176.7 L558.3,174.9 L564.0,173.7 L569.7,171.3 L575.3,162.3 L581.0,141.1
		L586.7,139.9 L592.3,138.4 L598.0,130.9 L603.7,128.6 L609.3,63.4 L615.0,32.6  '/></g>
	</g>
<g fill="none" color="#FFFFFF" stroke="rgb(  0, 158, 115)" stroke-width="2.00" stroke-linecap="butt" stroke-linejoin="miter">
</g>
<g fill="none" color="black" stroke="currentColor" stroke-width="2.00" stroke-linecap="butt" stroke-linejoin="miter">
</g>
<g fill="none" color="black" stroke="black" stroke-width="1.00" stroke-linecap="butt" stroke-linejoin="miter">
</g>
<g fill="none" color="black" stroke="currentColor" stroke-width="1.00" stroke-linecap="butt" stroke-linejoin="miter">
	<path stroke='black'  d='M53.9,18.1 L53.9,428.0 L615.0,428.0 L615.0,18.1 L53.9,18.1 Z  '/></g>
<g fill="none" color="black" stroke="currentColor" stroke-width="1.00" stroke-linecap="butt" stroke-linejoin="miter">
</g>
</g>
</svg>
